X:0008
T:Quick Step. 21th. Regt.
M:2/4
L:1/8
Q:1/4=96
I: :: ::
%% D ^F  G  A  B ^c  d  e ^f  g  a
Z:Jack Campin * www.campin.me.uk * 2009
K:D
FA A(G/F/)|BA A(B/c/)|dA`BG |FD D2:|
df f(e/d/)|ce e(d/c/)|d>ef>g|aA A2 |
df f(e/d/)|ce e(d/c/)|dA`BG |FD D2:|
<end>
<start>
